X:1
T:Title
%%score { ( 1 4 ) | ( 2 3 ) }
L:1/8
M:4/4
K:F
V:1 treble nm="Grand Piano"
V:4 treble 
V:2 bass 
V:3 bass 
V:1
 z4 z2[Q:1/4=100] C>C | F>F F>G A>G F>G | A2 A2 A2 A>A | [EG]>[EG] [EG]>[EA] [EG]>[CF] [CF]>[EG] | %4
 [FA]2 [Ac]2 [Ac]2 C>C | F>F F>G A>G F>G |[M:3/4] A2 A2 [Ac]2 |[M:1/4] [Ac]>[Ac] | %8
[M:4/4] [Fd]>[Fd] [Fd]>[Fd] [Ec]>[EA] [A,F]>[B,EG] |[M:3/4] [CFA]2 [B,EG]2 [A,F]2 |[M:1/4] z2 | %11
[M:4/4] z2 [CA]>[CA] [CA]2 z2 | z2 [A,A]>[A,A] [A,A]2 [CGB]>[CFA] | %13
 [EG]>[EG] [EG]>[EG] [EG]2 [Ec]>[EG] | [GB]>A A>G A2 A>c | f6 z2 |[M:3/4] c6 |[M:1/4] [Ac]>[Ac] | %18
[M:4/4] [Fd]>[Fd] [Fd]>[Fd] [Ec]>[EA] [A,F]>[B,EG] |[M:7/4] [CFA]2 [B,EG]2 [A,F]2 z2 z2 z4 |] %20
V:2
 z4 z2 [F,A,]>[F,G,A,] | [F,A,C]>[F,A,C] [F,A,C]>[F,B,C] [F,C]>[F,B,C] [F,A,C]>[F,B,C] | %2
 [F,CF]2 [F,CF]2 [F,CF]2 [F,CF]>[F,CF] | [C,C]>[C,C] [C,C]>[C,C] [C,C]>[C,A,] [C,A,]>[C,B,] | %4
 [F,C]2 [F,C]2 [F,C]2 [F,A,]>[F,G,A,] | %5
 [F,A,C]>[F,A,C] [F,A,C]>[F,B,C] [F,C]>[F,B,C] [F,A,C]>[F,B,C] |[M:3/4] [F,CF]2 [F,CF]2 [F,C]2 | %7
[M:1/4] [F,A,]>[F,A,] |[M:4/4] [B,,B,]>[B,,B,] [B,,B,]>[B,,B,] [C,G,]>[C,G,] C,>C, | %9
[M:3/4] C,2 C,2 F,2 |[M:1/4][K:treble] A>c |[M:4/4] f6[K:bass][K:treble] z2 | c6[K:bass] z2 | %13
 [C,C]>[C,C] [C,C]>[C,C] [C,C]2 [C,G,]>[C,C] | [F,C]>[F,CF] [F,CF]>[F,CE] [F,CF]2 z2 | %15
 z2 [F,C]>[F,C] [F,C]2 z2 |[M:3/4] z2 [F,A,]>[F,A,] [F,A,]2 |[M:1/4] [F,A,]>[F,A,] | %18
[M:4/4] [B,,B,]>[B,,B,] [B,,B,]>[B,,B,] [C,G,]>[C,G,] C,>C, |[M:7/4] C,2 C,2 F,2 z2 z2 z4 |] %20
V:3
 x8 | x8 | x8 | x8 | x8 | x8 |[M:3/4] x6 |[M:1/4] x2 |[M:4/4] x8 |[M:3/4] x6 | %10
[M:1/4][K:treble] x2 |[M:4/4] z2[K:bass] F,>F, F,2[K:treble] (3def | z2[K:bass] F,>F, F,2 F,>F, | %13
 x8 | x8 | x8 |[M:3/4] x6 |[M:1/4] x2 |[M:4/4] x8 |[M:7/4] x14 |] %20
V:4
 x8 | x8 | x8 | x8 | x8 | x8 |[M:3/4] x6 |[M:1/4] x2 |[M:4/4] x8 |[M:3/4] x6 |[M:1/4] x2 | %11
[M:4/4] x8 | x8 | x8 | x8 | z2 A>A A2 (3def |[M:3/4] z2 A>A A2 |[M:1/4] x2 |[M:4/4] x8 | %19
[M:7/4] x14 |] %20

